X: 1
T:Drummond Castle
R:J
S:Alba
D:Alb
M:6/8
L:1/8
Q:240
K:Em
[|F | EFE e3 | ed^c d3 | BdB dAF | DFd AFD | EFE e3 | edB d3 | B3 ABd |BAF E2 :]
|: F | GAG GBG| ABA ABA | GBG BAG| FAd AFD| GAG BAG | FAd e2 d| BdB ABd
| BAG E2 :||
